docs/inc/icons/checklist.svg

<svg height="16" viewBox="0 0 16 16" width="16" xmlns="http://www.w3.org/2000/svg"><path d="m16 8.5-6 6-3-3 1.5-1.5 1.5 1.5 4.5-4.5zm-10.3 3.7.8.8h-4.5c-.55 0-1-.45-1-1v-9c0-.55.45-1 1-1h7c.55 0 1 .45 1 1v6.5l-.8-.8c-.39-.39-1.03-.39-1.42 0l-2.08 2.1a.996.996 0 0 0 0 1.41zm-1.7-8.2h5v-1h-5zm0 2h5v-1h-5zm0 2h3v-1h-3zm-1 1h-1v1h1zm0-2h-1v1h1zm0-2h-1v1h1zm0-2h-1v1h1z" fill-rule="evenodd"/></svg>

<svg xmlns="http://www.w3.org/2000/svg" width="16" height="16" viewBox="0 0 16 16"><path fill-rule="evenodd" d="M16 8.5l-6 6-3-3L8.5 10l1.5 1.5L14.5 7 16 8.5zM5.7 12.2l.8.8H2c-.55 0-1-.45-1-1V3c0-.55.45-1 1-1h7c.55 0 1 .45 1 1v6.5l-.8-.8c-.39-.39-1.03-.39-1.42 0L5.7 10.8a.996.996 0 0 0 0 1.41v-.01zM4 4h5V3H4v1zm0 2h5V5H4v1zm0 2h3V7H4v1zM3 9H2v1h1V9zm0-2H2v1h1V7zm0-2H2v1h1V5zm0-2H2v1h1V3z"/></svg>
